assets/img/ruler-won.svg

<svg viewBox="0 0 24 24" xmlns="http://www.w3.org/2000/svg"><path d="M19 0H5a5 5 0 0 0-5 5v14a5 5 0 0 0 5 5h14a5 5 0 0 0 5-5V5a5 5 0 0 0-5-5zm3 19a2.997 2.997 0 0 1-2 2.816V19h-1v3h-2v-3h-1v3h-2v-3h-1v3h-2v-3h-1v3H8v-3H7v3H5v-3H4v2.815A2.995 2.995 0 0 1 2 19V5c0-1.302.839-2.401 2-2.816V5h1V2h2v6h1V2h2v3h1V2h2v3h1V2h2v6h1V2h2v3h1V2.184c1.161.415 2 1.514 2 2.816v14z"/></svg>

<?xml version="1.0" encoding="UTF-8"?>
<svg viewBox="0 0 24 24" version="1.1" xmlns="http://www.w3.org/2000/svg" xmlns:xlink="http://www.w3.org/1999/xlink">
    <path d="M19,0 L5,0 C2.238,0 0,2.239 0,5 L0,19 C0,21.761 2.238,24 5,24 L19,24 C21.762,24 24,21.761 24,19 L24,5 C24,2.239 21.762,0 19,0 Z M22,19 C22,20.302 21.161,21.401 20,21.816 L20,19 L19,19 L19,22 L17,22 L17,19 L16,19 L16,22 L14,22 L14,19 L13,19 L13,22 L11,22 L11,19 L10,19 L10,22 L8,22 L8,19 L7,19 L7,22 L5,22 L5,19 L4,19 L4,21.815 C2.839,21.401 2,20.302 2,19 L2,5 C2,3.698 2.839,2.599 4,2.184 L4,5 L5,5 L5,2 L7,2 L7,8 L8,8 L8,2 L10,2 L10,5 L11,5 L11,2 L13,2 L13,5 L14,5 L14,2 L16,2 L16,8 L17,8 L17,2 L19,2 L19,5 L20,5 L20,2.184 C21.161,2.599 22,3.698 22,5 L22,19 Z"></path>
</svg>
